X: 1876
T: Arnish Light
R: reel
M: 4/4
K: Amixolydian
ceeA Ac c/c/c|d2dc BGGd|ceeA Ac c/c/c|eAdc AAAB|
ceeA Ac c/c/c|d2dc BGGd|ceeA Ac c/c/c|eAdc AAAe||
ae c2 fece|d2dc BGGe|ae c2 fece|eAdc AAAe|
ae c2 fece|d2dc BGGd|ceeA Ac c/c/c|eAdc AAA||

